X:198
T: GRAF FRIEDRICH WOLLT AUSREITEN
N: E0107A
O: Europa, Mitteleuropa, Deutschland, Schlesien, Hainau, Conradsdorf
R: erzaehlendes Volks - Lied, Sage, Liebe, Leid, Tod
M: 3/4
L: 1/8
K: F
C2 | FGA2A2 | G2F2z
F | ABc2c2 | B2A
AAA | c2BGGG | B2A
FFG | A2c2GG | F4

